X:166
T:AVANT DEUX de Bazouges-la-Perouse
Z: Yves BELOTTEAU
M:6/8
L:1/8
Q:1/4=120
K:G
|DEF GFG|AFE D3/2 z/2 B|BAB c3/2 z/2 A|AGA B3/2 z/2 G|
 DEF GFG|AFE D3/2 z/2 B|BAB dcB|cBA G3/2 z/2 |
|:BAB c3/2 z/2 A|AGA B3/2 z/2 G|BAB dcB|cBA G3/2 z/2:|
